X: 1
T: The Bridge Inn
C: Trad: Henry Cave, noted by C Sharp
S: "Geoff Woolfe" <geoffwoolfe@btinternet.com> tradtunes 2013-2-8
M: 2/4
L: 1/16
K: G
|:\
B,3D G3E | C3E A3G | F3A d3c | B3d g3f | e2d2 e2B2 | c2B2 A2B2 | A2G2 (3FGE | D4 D3C | B,3D G3E |
C3E A3G | F3A d3c | B3d g3f | e2d2 e2B2 | c2A2 E2F2 | G2F2 G2A2 | G4- Gz :|
d2 |\
g2f2 g2e2 | ^c2e2 g2f2 | e2d2 e2^c2 | A2=c2 e2=c2 | d2^c2 d2B2 | G2B2 A2G2 (3FGE | D4 D3C |
B,3D G3E | C3E A3G | F3A d3c | B3d g3f | e2d2 e2B2 | c2A2 e2f2 | C2a2 E2F2 | G2F2 G2A2
